public/img/Tools/QA.svg

<?xml version="1.0" encoding="UTF-8"?>
<svg width="101px" height="114px" viewBox="0 0 101 114" version="1.1" xmlns="http://www.w3.org/2000/svg" xmlns:xlink="http://www.w3.org/1999/xlink">
    <!-- Generator: Sketch 42 (36781) - http://www.bohemiancoding.com/sketch -->
    <title>QA</title>
    <desc>Created with Sketch.</desc>
    <defs>
        <path d="M2.095,2.137 L5.254,8.333 C5.254,8.333 7.786,6.865 9.94,7.337 C11.646,7.71 12.882,9.156 12.548,10.682 C11.722,14.453 4.439,13.987 3.112,20.046 L2.621,22.29 L10.072,23.922 L10.425,22.305 C11.3,18.311 19.211,18.915 20.824,11.554 C22.091,5.763 17.319,1.567 12.291,0.466 C11.205,0.228 10.179,0.131 9.227,0.131 C4.904,0.131 2.095,2.137 2.095,2.137 Z M0.628,32.249 L7.719,33.803 L9.194,27.07 L2.102,25.516 L0.628,32.249 Z" id="path-1"></path>
        <path d="M2.095,2.137 L5.254,8.333 C5.254,8.333 7.786,6.865 9.94,7.337 C11.646,7.71 12.882,9.156 12.548,10.682 C11.722,14.453 4.439,13.987 3.112,20.046 L2.621,22.29 L10.072,23.922 L10.425,22.305 C11.3,18.311 19.211,18.915 20.824,11.554 C22.091,5.763 17.319,1.567 12.291,0.466 C11.205,0.228 10.18,0.131 9.227,0.131 C4.904,0.131 2.095,2.137 2.095,2.137 Z M0.628,32.249 L7.719,33.803 L9.194,27.07 L2.102,25.516 L0.628,32.249 Z" id="path-3"></path>
        <path d="M12.266,7.022 L19.358,8.575 L20.833,1.842 L13.741,0.29 L12.266,7.022 Z M11.035,11.786 C10.16,15.78 2.249,15.177 0.637,22.538 C-0.631,28.328 4.142,32.525 9.169,33.626 C15.183,34.943 19.365,31.954 19.365,31.954 L16.206,25.759 C16.206,25.759 13.675,27.228 11.52,26.755 C9.814,26.381 8.579,24.936 8.913,23.41 C9.739,19.64 17.022,20.105 18.348,14.045 L18.84,11.802 L11.389,10.17 L11.035,11.786 Z" id="path-5"></path>
    </defs>
    <g id="Page-1" stroke="none" stroke-width="1" fill="none" fill-rule="evenodd">
        <g id="Landing-Copy-3" transform="translate(-141.000000, -2623.000000)">
            <g id="QA" transform="translate(141.000000, 2623.000000)">
                <polygon id="Fill-1" fill="#00A9C7" points="100.2303 85.2892 50.2293 113.6222 0.2303 85.2892 0.2303 28.6222 50.2293 0.2892 100.2303 28.6222"></polygon>
                <path d="M56.1022,61.4265 L63.1942,62.9795 L61.7192,69.7125 L54.6282,68.1595 L56.1022,61.4265 Z M57.1122,55.9565 C58.4392,49.8965 65.7222,50.3625 66.5472,46.5915 C66.8822,45.0655 65.6462,43.6195 63.9402,43.2465 C61.7862,42.7745 59.2542,44.2425 59.2542,44.2425 L56.0952,38.0465 C56.0952,38.0465 60.2772,35.0585 66.2912,36.3755 C71.3192,37.4765 76.0912,41.6735 74.8232,47.4635 C73.2112,54.8255 65.3002,54.2215 64.4252,58.2155 L64.0722,59.8315 L56.6212,58.2005 L57.1122,55.9565 Z" id="Fill-2" fill="#FFFFFF"></path>
                <g id="Group-6" transform="translate(54.000000, 35.910000)">
                    <mask id="mask-2" fill="white">
                        <use xlink:href="#path-1"></use>
                    </mask>
                    <g id="Clip-5"></g>
                    <polygon id="Fill-4" fill="#FFFFFF" mask="url(#mask-2)" points="-488 1626 301.842 1626 301.842 -995.049 -488 -995.049"></polygon>
                </g>
                <g id="Group-9" transform="translate(54.000000, 35.910000)">
                    <mask id="mask-4" fill="white">
                        <use xlink:href="#path-3"></use>
                    </mask>
                    <g id="Clip-8"></g>
                    <polygon id="Fill-7" fill="#FFFFFF" mask="url(#mask-4)" points="-2.263 36.693 23.922 36.693 23.922 -2.761 -2.263 -2.761"></polygon>
                </g>
                <path d="M44.3583,52.4851 L37.2663,50.9321 L38.7413,44.1991 L45.8323,45.7521 L44.3583,52.4851 Z M43.3483,57.9551 C42.0213,64.0151 34.7383,63.5491 33.9133,67.3201 C33.5783,68.8461 34.8143,70.2921 36.5203,70.6651 C38.6743,71.1371 41.2063,69.6691 41.2063,69.6691 L44.3653,75.8651 C44.3653,75.8651 40.1833,78.8531 34.1693,77.5361 C29.1413,76.4351 24.3693,72.2381 25.6373,66.4481 C27.2493,59.0861 35.1603,59.6901 36.0353,55.6961 L36.3883,54.0801 L43.8393,55.7111 L43.3483,57.9551 Z" id="Fill-10" fill="#FFFFFF"></path>
                <g id="Group-15" transform="translate(25.000000, 43.910000)">
                    <mask id="mask-6" fill="white">
                        <use xlink:href="#path-5"></use>
                    </mask>
                    <g id="Clip-13"></g>
                    <polygon id="Fill-12" fill="#FFFFFF" mask="url(#mask-6)" points="-280.381 1029.141 509.461 1029.141 509.461 -1591.908 -280.381 -1591.908"></polygon>
                    <polygon id="Fill-14" fill="#FFFFFF" mask="url(#mask-6)" points="-2.461 36.852 23.724 36.852 23.724 -2.602 -2.461 -2.602"></polygon>
                </g>
            </g>
        </g>
    </g>
</svg>

<svg width="101" height="114" viewBox="0 0 101 114" xmlns="http://www.w3.org/2000/svg" xmlns:xlink="http://www.w3.org/1999/xlink"><title>QA</title><defs><path d="M2.095 2.137l3.159 6.196s2.532-1.468 4.686-.996c1.706.373 2.942 1.819 2.608 3.345-.826 3.771-8.109 3.305-9.436 9.364l-.491 2.244 7.451 1.632.353-1.617c.875-3.994 8.786-3.39 10.399-10.751 1.267-5.791-3.505-9.987-8.533-11.088A14.283 14.283 0 0 0 9.227.131c-4.323 0-7.132 2.006-7.132 2.006zM.628 32.249l7.091 1.554 1.475-6.733-7.092-1.554-1.474 6.733z" id="a"/><path d="M2.095 2.137l3.159 6.196s2.532-1.468 4.686-.996c1.706.373 2.942 1.819 2.608 3.345-.826 3.771-8.109 3.305-9.436 9.364l-.491 2.244 7.451 1.632.353-1.617c.875-3.994 8.786-3.39 10.399-10.751 1.267-5.791-3.505-9.987-8.533-11.088A14.277 14.277 0 0 0 9.227.131c-4.323 0-7.132 2.006-7.132 2.006zM.628 32.249l7.091 1.554 1.475-6.733-7.092-1.554-1.474 6.733z" id="c"/><path d="M12.266 7.022l7.092 1.553 1.475-6.733L13.741.29l-1.475 6.732zm-1.231 4.764C10.16 15.78 2.249 15.177.637 22.538c-1.268 5.79 3.505 9.987 8.532 11.088 6.014 1.317 10.196-1.672 10.196-1.672l-3.159-6.195s-2.531 1.469-4.686.996c-1.706-.374-2.941-1.819-2.607-3.345.826-3.77 8.109-3.305 9.435-9.365l.492-2.243-7.451-1.632-.354 1.616z" id="e"/></defs><g fill="none" fill-rule="evenodd"><path fill="#00A9C7" d="M100.23 85.29l-50 28.332-50-28.333V28.622L50.23.29l50 28.333z"/><path d="M56.102 61.426l7.092 1.553-1.475 6.734-7.09-1.553 1.473-6.733zm1.01-5.47c1.327-6.06 8.61-5.594 9.435-9.364.335-1.526-.9-2.972-2.607-3.346-2.154-.471-4.686.996-4.686.996l-3.159-6.195s4.182-2.988 10.196-1.671c5.028 1.1 9.8 5.297 8.532 11.088-1.612 7.361-9.523 6.758-10.398 10.752l-.353 1.615-7.45-1.63.49-2.245z" fill="#FFF"/><g transform="translate(54 35.91)"><mask id="b" fill="#fff"><use xlink:href="#a"/></mask><path fill="#FFF" mask="url(#b)" d="M-488 1626h789.842V-995.049H-488z"/></g><g transform="translate(54 35.91)"><mask id="d" fill="#fff"><use xlink:href="#c"/></mask><path fill="#FFF" mask="url(#d)" d="M-2.263 36.693h26.185V-2.761H-2.263z"/></g><path d="M44.358 52.485l-7.092-1.553 1.475-6.733 7.091 1.553-1.474 6.733zm-1.01 5.47c-1.327 6.06-8.61 5.594-9.435 9.365-.335 1.526.901 2.972 2.607 3.345 2.154.472 4.686-.996 4.686-.996l3.16 6.196s-4.183 2.988-10.197 1.671c-5.028-1.1-9.8-5.298-8.532-11.088 1.612-7.362 9.523-6.758 10.398-10.752l.353-1.616 7.451 1.631-.49 2.244z" fill="#FFF"/><g transform="translate(25 43.91)"><mask id="f" fill="#fff"><use xlink:href="#e"/></mask><path fill="#FFF" mask="url(#f)" d="M-280.381 1029.141h789.842v-2621.049h-789.842z"/><path fill="#FFF" mask="url(#f)" d="M-2.461 36.852h26.185V-2.602H-2.461z"/></g></g></svg>
